images/3036222.svg

<?xml version="1.0" encoding="UTF-8"?>
<svg xmlns="http://www.w3.org/2000/svg" xmlns:xlink="http://www.w3.org/1999/xlink" width="300pt" height="300pt" viewBox="0 0 300 300" version="1.1">
<defs>
<g>
<symbol overflow="visible" id="glyph0-0">
<path style="stroke:none;" d="M 0.59375 2.125 L 0.59375 -8.46875 L 6.59375 -8.46875 L 6.59375 2.125 Z M 1.265625 1.453125 L 5.9375 1.453125 L 5.9375 -7.78125 L 1.265625 -7.78125 Z M 1.265625 1.453125 "/>
</symbol>
<symbol overflow="visible" id="glyph0-1">
<path style="stroke:none;" d="M 1.171875 -8.75 L 2.765625 -8.75 L 6.65625 -1.4375 L 6.65625 -8.75 L 7.796875 -8.75 L 7.796875 0 L 6.203125 0 L 2.328125 -7.3125 L 2.328125 0 L 1.171875 0 Z M 1.171875 -8.75 "/>
</symbol>
<symbol overflow="visible" id="glyph0-2">
<path style="stroke:none;" d="M 4.734375 -7.953125 C 3.867188 -7.953125 3.179688 -7.628906 2.671875 -6.984375 C 2.171875 -6.347656 1.921875 -5.472656 1.921875 -4.359375 C 1.921875 -3.265625 2.171875 -2.394531 2.671875 -1.75 C 3.179688 -1.113281 3.867188 -0.796875 4.734375 -0.796875 C 5.585938 -0.796875 6.265625 -1.113281 6.765625 -1.75 C 7.273438 -2.394531 7.53125 -3.265625 7.53125 -4.359375 C 7.53125 -5.472656 7.273438 -6.347656 6.765625 -6.984375 C 6.265625 -7.628906 5.585938 -7.953125 4.734375 -7.953125 Z M 4.734375 -8.90625 C 5.953125 -8.90625 6.925781 -8.492188 7.65625 -7.671875 C 8.394531 -6.847656 8.765625 -5.742188 8.765625 -4.359375 C 8.765625 -2.984375 8.394531 -1.882812 7.65625 -1.0625 C 6.925781 -0.238281 5.953125 0.171875 4.734375 0.171875 C 3.503906 0.171875 2.519531 -0.238281 1.78125 -1.0625 C 1.039062 -1.882812 0.671875 -2.984375 0.671875 -4.359375 C 0.671875 -5.742188 1.039062 -6.847656 1.78125 -7.671875 C 2.519531 -8.492188 3.503906 -8.90625 4.734375 -8.90625 Z M 4.734375 -8.90625 "/>
</symbol>
<symbol overflow="visible" id="glyph0-3">
<path style="stroke:none;" d="M 1.171875 -8.75 L 2.359375 -8.75 L 2.359375 -5.15625 L 6.65625 -5.15625 L 6.65625 -8.75 L 7.84375 -8.75 L 7.84375 0 L 6.65625 0 L 6.65625 -4.171875 L 2.359375 -4.171875 L 2.359375 0 L 1.171875 0 Z M 1.171875 -8.75 "/>
</symbol>
</g>
</defs>
<g id="surface44805">
<rect x="0" y="0" width="300" height="300" style="fill:rgb(100%,100%,100%);fill-opacity:1;stroke:none;"/>
<path style="fill:none;stroke-width:1;stroke-linecap:butt;stroke-linejoin:miter;stroke:rgb(0%,0%,0%);stroke-opacity:1;stroke-miterlimit:10;" d="M 131.023438 162.230469 L 131.023438 162.230469 M 128.074219 162.796875 L 129 164.445312 M 125.128906 163.359375 L 126.976562 166.660156 M 122.183594 163.925781 L 124.953125 168.875 M 119.238281 164.488281 L 122.929688 171.089844 M 116.289062 165.054688 L 120.90625 173.304688 M 114.035156 165.484375 L 119.355469 175 "/>
<path style="fill:none;stroke-width:1.2;stroke-linecap:butt;stroke-linejoin:miter;stroke:rgb(0%,0%,0%);stroke-opacity:1;stroke-miterlimit:10;" d="M 131.023438 162.230469 L 123.960938 132.164062 "/>
<path style="fill:none;stroke-width:1.2;stroke-linecap:butt;stroke-linejoin:miter;stroke:rgb(0%,0%,0%);stroke-opacity:1;stroke-miterlimit:10;" d="M 160.59375 171.148438 L 131.023438 162.230469 "/>
<path style=" stroke:none;fill-rule:nonzero;fill:rgb(0%,0%,0%);fill-opacity:1;" d="M 123.960938 132.164062 L 150.203125 114.988281 L 142.738281 107.042969 Z M 123.960938 132.164062 "/>
<path style="fill:none;stroke-width:1.2;stroke-linecap:butt;stroke-linejoin:miter;stroke:rgb(0%,0%,100%);stroke-opacity:1;stroke-miterlimit:10;" d="M 101.453125 153.3125 L 112.707031 142.738281 "/>
<path style="fill:none;stroke-width:1.2;stroke-linecap:butt;stroke-linejoin:miter;stroke:rgb(0%,0%,0%);stroke-opacity:1;stroke-miterlimit:10;" d="M 112.707031 142.738281 L 123.960938 132.164062 "/>
<path style="fill:none;stroke-width:1.2;stroke-linecap:butt;stroke-linejoin:miter;stroke:rgb(0%,0%,0%);stroke-opacity:1;stroke-miterlimit:10;" d="M 146.46875 111.015625 L 176.039062 119.933594 "/>
<path style="fill:none;stroke-width:1.2;stroke-linecap:butt;stroke-linejoin:miter;stroke:rgb(0%,0%,0%);stroke-opacity:1;stroke-miterlimit:10;" d="M 176.039062 119.933594 L 183.101562 150 "/>
<path style="fill:none;stroke-width:1.2;stroke-linecap:butt;stroke-linejoin:miter;stroke:rgb(0%,0%,0%);stroke-opacity:1;stroke-miterlimit:10;" d="M 183.820312 121.277344 L 189.46875 145.332031 "/>
<path style="fill:none;stroke-width:1.2;stroke-linecap:butt;stroke-linejoin:miter;stroke:rgb(0%,0%,0%);stroke-opacity:1;stroke-miterlimit:10;" d="M 198.546875 98.78125 L 176.039062 119.933594 "/>
<path style="fill:none;stroke-width:1.2;stroke-linecap:butt;stroke-linejoin:miter;stroke:rgb(0%,0%,0%);stroke-opacity:1;stroke-miterlimit:10;" d="M 183.101562 150 L 160.59375 171.148438 "/>
<path style="fill:none;stroke-width:1.2;stroke-linecap:butt;stroke-linejoin:miter;stroke:rgb(0%,0%,0%);stroke-opacity:1;stroke-miterlimit:10;" d="M 183.101562 150 L 212.671875 158.917969 "/>
<path style="fill:none;stroke-width:1.2;stroke-linecap:butt;stroke-linejoin:miter;stroke:rgb(0%,0%,0%);stroke-opacity:1;stroke-miterlimit:10;" d="M 160.59375 171.148438 L 138.085938 192.300781 "/>
<path style="fill:none;stroke-width:1;stroke-linecap:butt;stroke-linejoin:miter;stroke:rgb(0%,0%,0%);stroke-opacity:1;stroke-miterlimit:10;" d="M 160.59375 171.148438 L 160.59375 171.148438 M 160.761719 174.144531 L 161.777344 173.90625 M 160.929688 177.140625 L 162.957031 176.664062 M 161.097656 180.136719 L 164.140625 179.421875 M 161.265625 183.128906 L 165.324219 182.175781 M 161.433594 186.125 L 166.507812 184.933594 M 161.601562 189.121094 L 167.691406 187.691406 M 161.769531 192.117188 L 168.875 190.449219 M 161.9375 195.113281 L 170.058594 193.203125 M 162.105469 198.105469 L 171.238281 195.960938 M 162.273438 201.101562 L 172.421875 198.71875 M 162.347656 202.464844 L 172.960938 199.972656 "/>
<path style="fill:none;stroke-width:1.2;stroke-linecap:butt;stroke-linejoin:miter;stroke:rgb(0%,0%,0%);stroke-opacity:1;stroke-miterlimit:10;" d="M 138.085938 192.300781 L 108.515625 183.382812 "/>
<path style="fill:none;stroke-width:1.2;stroke-linecap:butt;stroke-linejoin:miter;stroke:rgb(0%,0%,0%);stroke-opacity:1;stroke-miterlimit:10;" d="M 108.515625 183.382812 L 104.984375 168.347656 "/>
<path style="fill:none;stroke-width:1.2;stroke-linecap:butt;stroke-linejoin:miter;stroke:rgb(0%,0%,100%);stroke-opacity:1;stroke-miterlimit:10;" d="M 104.984375 168.347656 L 101.453125 153.3125 "/>
<path style="fill:none;stroke-width:1.2;stroke-linecap:butt;stroke-linejoin:miter;stroke:rgb(0%,0%,100%);stroke-opacity:1;stroke-miterlimit:10;" d="M 101.453125 153.3125 L 86.667969 148.855469 "/>
<path style="fill:none;stroke-width:1.2;stroke-linecap:butt;stroke-linejoin:miter;stroke:rgb(0%,0%,0%);stroke-opacity:1;stroke-miterlimit:10;" d="M 86.667969 148.855469 L 71.882812 144.394531 "/>
<path style=" stroke:none;fill-rule:nonzero;fill:rgb(100%,100%,100%);fill-opacity:1;" d="M 97.453125 146.3125 L 106.453125 146.3125 L 106.453125 160.3125 L 97.453125 160.3125 Z M 97.453125 146.3125 "/>
<g style="fill:rgb(0%,0%,100%);fill-opacity:1;">
  <use xlink:href="#glyph0-1" x="97.453125" y="157.451172"/>
</g>
<path style="fill:none;stroke-width:1.2;stroke-linecap:butt;stroke-linejoin:miter;stroke:rgb(0%,0%,0%);stroke-opacity:1;stroke-miterlimit:10;" d="M 71.882812 144.394531 L 64.820312 114.328125 "/>
<path style="fill:none;stroke-width:1.2;stroke-linecap:butt;stroke-linejoin:miter;stroke:rgb(0%,0%,0%);stroke-opacity:1;stroke-miterlimit:10;" d="M 65.871094 110.847656 L 36.300781 101.929688 "/>
<path style="fill:none;stroke-width:1.2;stroke-linecap:butt;stroke-linejoin:miter;stroke:rgb(0%,0%,0%);stroke-opacity:1;stroke-miterlimit:10;" d="M 63.769531 117.804688 L 34.199219 108.886719 "/>
<path style="fill:none;stroke-width:1.2;stroke-linecap:butt;stroke-linejoin:miter;stroke:rgb(0%,0%,0%);stroke-opacity:1;stroke-miterlimit:10;" d="M 212.671875 158.917969 L 235.179688 137.769531 "/>
<path style="fill:none;stroke-width:1.2;stroke-linecap:butt;stroke-linejoin:miter;stroke:rgb(0%,0%,0%);stroke-opacity:1;stroke-miterlimit:10;" d="M 209.945312 151.507812 L 227.953125 134.585938 "/>
<path style="fill:none;stroke-width:1.2;stroke-linecap:butt;stroke-linejoin:miter;stroke:rgb(0%,0%,0%);stroke-opacity:1;stroke-miterlimit:10;" d="M 235.179688 137.769531 L 228.117188 107.699219 "/>
<path style="fill:none;stroke-width:1.2;stroke-linecap:butt;stroke-linejoin:miter;stroke:rgb(0%,0%,0%);stroke-opacity:1;stroke-miterlimit:10;" d="M 235.179688 137.769531 L 249.964844 142.226562 "/>
<path style="fill:none;stroke-width:1.2;stroke-linecap:butt;stroke-linejoin:miter;stroke:rgb(100%,0%,0%);stroke-opacity:1;stroke-miterlimit:10;" d="M 249.964844 142.226562 L 264.75 146.6875 "/>
<path style="fill:none;stroke-width:1.2;stroke-linecap:butt;stroke-linejoin:miter;stroke:rgb(0%,0%,0%);stroke-opacity:1;stroke-miterlimit:10;" d="M 228.117188 107.699219 L 198.546875 98.78125 "/>
<path style="fill:none;stroke-width:1.2;stroke-linecap:butt;stroke-linejoin:miter;stroke:rgb(0%,0%,0%);stroke-opacity:1;stroke-miterlimit:10;" d="M 223.0625 113.765625 L 199.40625 106.632812 "/>
<path style=" stroke:none;fill-rule:nonzero;fill:rgb(100%,100%,100%);fill-opacity:1;" d="M 255.75 139.6875 L 274.75 139.6875 L 274.75 153.6875 L 255.75 153.6875 Z M 255.75 139.6875 "/>
<g style="fill:rgb(100%,0%,0%);fill-opacity:1;">
  <use xlink:href="#glyph0-2" x="255.75" y="150.826172"/>
  <use xlink:href="#glyph0-3" x="265.195312" y="150.826172"/>
</g>
</g>
</svg>

<svg xmlns="http://www.w3.org/2000/svg" xmlns:xlink="http://www.w3.org/1999/xlink" width="300pt" height="300pt" viewBox="0 0 300 300"><defs><symbol overflow="visible"><path d="M.594 2.125V-8.47h6V2.126zm.672-.672h4.671V-7.78h-4.67zm0 0"/></symbol><symbol overflow="visible" id="a"><path d="M1.172-8.75h1.594l3.89 7.313V-8.75h1.14V0H6.204L2.328-7.313V0H1.172zm0 0"/></symbol><symbol overflow="visible" id="b"><path d="M4.734-7.953c-.867 0-1.554.324-2.062.97-.5.635-.75 1.51-.75 2.624 0 1.094.25 1.965.75 2.61.508.637 1.195.953 2.062.953.852 0 1.532-.316 2.032-.953.507-.645.765-1.516.765-2.61 0-1.113-.257-1.988-.764-2.624-.5-.645-1.18-.97-2.032-.97zm0-.953c1.22 0 2.192.414 2.922 1.234.74.824 1.11 1.93 1.11 3.313 0 1.376-.37 2.477-1.11 3.298C6.926-.24 5.953.17 4.734.17c-1.23 0-2.214-.41-2.953-1.234C1.04-1.882.673-2.984.673-4.36c0-1.382.367-2.488 1.11-3.312.738-.82 1.722-1.234 2.952-1.234zm0 0"/></symbol><symbol overflow="visible" id="c"><path d="M1.172-8.75H2.36v3.594h4.296V-8.75h1.188V0H6.656v-4.172H2.36V0H1.17zm0 0"/></symbol></defs><g><path fill="#fff" d="M0 0h300v300H0z"/><path d="M131.023 162.23m-2.95.567l.927 1.648m-3.87-1.086l1.847 3.3m-4.793-2.734l2.77 4.95m-5.716-4.388l3.692 6.602m-6.64-6.035l4.616 8.25m-6.87-7.82l5.32 9.515" stroke="#000" stroke-miterlimit="10" fill="none"/><path d="M131.023 162.23l-7.062-30.066M160.594 171.148l-29.57-8.918" stroke-width="1.2" stroke="#000" stroke-miterlimit="10" fill="none"/><path d="M123.96 132.164l26.243-17.176-7.465-7.945zm0 0"/><path d="M101.453 153.313l11.254-10.575" stroke-width="1.2" stroke="#00f" stroke-miterlimit="10" fill="none"/><path d="M112.707 142.738l11.254-10.574M146.47 111.016l29.57 8.918M176.04 119.934L183.1 150M183.82 121.277l5.65 24.055M198.547 98.78l-22.508 21.154M183.102 150l-22.508 21.148M183.102 150l29.57 8.918M160.594 171.148L138.086 192.3" stroke-width="1.2" stroke="#000" stroke-miterlimit="10" fill="none"/><path d="M160.594 171.148m.168 2.997l1.015-.24m-.847 3.236l2.027-.476m-1.86 3.473l3.044-.715m-2.874 3.707l4.058-.954m-3.89 3.95l5.074-1.192m-4.906 4.187l6.09-1.43m-5.922 4.427l7.105-1.668m-6.938 4.663l8.122-1.91m-7.955 4.902l9.133-2.144m-8.965 5.142l10.15-2.383m-10.075 3.745l10.613-2.492" stroke="#000" stroke-miterlimit="10" fill="none"/><path d="M138.086 192.3l-29.57-8.917M108.516 183.383l-3.532-15.035" stroke-width="1.2" stroke="#000" stroke-miterlimit="10" fill="none"/><path d="M104.984 168.348l-3.53-15.036M101.453 153.313l-14.785-4.458" stroke-width="1.2" stroke="#00f" stroke-miterlimit="10" fill="none"/><path d="M86.668 148.855l-14.785-4.46" stroke-width="1.2" stroke="#000" stroke-miterlimit="10" fill="none"/><path d="M97.453 146.313h9v14h-9zm0 0" fill="#fff"/><use xlink:href="#a" x="97.453" y="157.451" fill="#00f"/><path d="M71.883 144.395l-7.063-30.067M65.87 110.848L36.3 101.93M63.77 117.805l-29.57-8.918M212.672 158.918l22.508-21.148M209.945 151.508l18.008-16.922M235.18 137.77l-7.063-30.07M235.18 137.77l14.785 4.457" stroke-width="1.2" stroke="#000" stroke-miterlimit="10" fill="none"/><path d="M249.965 142.227l14.785 4.46" stroke-width="1.2" stroke="#f00" stroke-miterlimit="10" fill="none"/><path d="M228.117 107.7l-29.57-8.92M223.063 113.766l-23.657-7.133" stroke-width="1.2" stroke="#000" stroke-miterlimit="10" fill="none"/><path d="M255.75 139.688h19v14h-19zm0 0" fill="#fff"/><g fill="#f00"><use xlink:href="#b" x="255.75" y="150.826"/><use xlink:href="#c" x="265.195" y="150.826"/></g></g></svg>
